img/illustrations/Services_in_electronic_form_are_provided_to_individuals.svg

<svg width="145" height="145" viewBox="0 0 145 145" fill="none" xmlns="http://www.w3.org/2000/svg">
<path d="M5 121.03L140 121.08" stroke="#007B64" stroke-width="2" stroke-miterlimit="10" stroke-linecap="round"/>
<path d="M58.9202 108.52H131.99C132.255 108.52 132.51 108.625 132.697 108.813C132.885 109 132.99 109.255 132.99 109.52C132.998 111.022 132.71 112.511 132.142 113.901C131.574 115.291 130.738 116.556 129.681 117.623C128.624 118.69 127.368 119.539 125.983 120.12C124.598 120.701 123.112 121.003 121.61 121.01H23.3302C21.8283 121.002 20.3427 120.698 18.9583 120.116C17.5739 119.534 16.3179 118.684 15.2619 117.616C14.206 116.548 13.3709 115.283 12.8043 113.892C12.2378 112.501 11.951 111.012 11.9602 109.51V109.51C11.9602 109.245 12.0655 108.99 12.2531 108.803C12.4406 108.615 12.695 108.51 12.9602 108.51H51.4402" fill="white"/>
<path d="M115.61 29H29.5501C25.7007 29 22.5801 32.1206 22.5801 35.97V101.03C22.5801 104.879 25.7007 108 29.5501 108H115.61C119.46 108 122.58 104.879 122.58 101.03V35.97C122.58 32.1206 119.46 29 115.61 29Z" fill="white"/>
<path d="M61.4302 108.5C61.4302 108.5 75.7502 100.5 91.8102 102C102.81 103 122.16 93.41 122.49 91.71V102.11L119.81 108L112.81 109L61.4302 108.5Z" fill="#EBEBEB"/>
<path d="M22.3301 101.34V36.24C22.3248 34.3515 23.0678 32.5378 24.3966 31.1959C25.7254 29.854 27.5317 29.0932 29.4201 29.08H109.49" stroke="#007B64" stroke-width="2.18" stroke-miterlimit="10" stroke-linecap="round"/>
<path d="M106.04 29.12H115.62C117.509 29.1358 119.316 29.8989 120.644 31.2424C121.973 32.5859 122.715 34.4006 122.71 36.29V101.38C122.713 102.952 122.196 104.482 121.24 105.73C120.584 106.6 119.735 107.307 118.76 107.795C117.785 108.282 116.71 108.537 115.62 108.54H108.12" stroke="#007B64" stroke-width="2" stroke-miterlimit="10" stroke-linecap="round"/>
<path d="M94.9902 121C94.9902 121 104.81 114 110.81 114C116.81 114 120.28 109.09 120.05 108.54L132.32 108.61L133.02 110.22L132.81 114L126.81 120L94.9902 121Z" fill="#EBEBEB"/>
<path d="M58.9202 108.52H131.99C132.255 108.52 132.51 108.625 132.697 108.813C132.885 109 132.99 109.255 132.99 109.52C132.998 111.022 132.71 112.511 132.142 113.901C131.574 115.291 130.738 116.556 129.681 117.623C128.624 118.69 127.368 119.539 125.983 120.12C124.598 120.701 123.112 121.003 121.61 121.01H23.3302C21.8283 121.002 20.3427 120.698 18.9583 120.116C17.5739 119.534 16.3179 118.684 15.2619 117.616C14.206 116.548 13.3709 115.283 12.8043 113.892C12.2378 112.501 11.951 111.012 11.9602 109.51V109.51C11.9602 109.245 12.0655 108.99 12.2531 108.803C12.4406 108.615 12.695 108.51 12.9602 108.51H51.4402" stroke="#007B64" stroke-width="2" stroke-miterlimit="10" stroke-linecap="round"/>
<path d="M30.8501 39.54L113.61 39.57" stroke="#007B64" stroke-width="2" stroke-miterlimit="10" stroke-linecap="round"/>
<path d="M110.31 33.64H91.5001C90.9809 33.64 90.5601 34.0609 90.5601 34.58C90.5601 35.0991 90.9809 35.52 91.5001 35.52H110.31C110.829 35.52 111.25 35.0991 111.25 34.58C111.25 34.0609 110.829 33.64 110.31 33.64Z" fill="#FFC463"/>
<path d="M33.8098 33.25H33.7998C33.0873 33.25 32.5098 33.8276 32.5098 34.54V34.57C32.5098 35.2824 33.0873 35.86 33.7998 35.86H33.8098C34.5222 35.86 35.0998 35.2824 35.0998 34.57V34.54C35.0998 33.8276 34.5222 33.25 33.8098 33.25Z" fill="#C4C4C4"/>
<path d="M37.6901 33.25H37.6801C36.9677 33.25 36.3901 33.8276 36.3901 34.54V34.57C36.3901 35.2824 36.9677 35.86 37.6801 35.86H37.6901C38.4026 35.86 38.9801 35.2824 38.9801 34.57V34.54C38.9801 33.8276 38.4026 33.25 37.6901 33.25Z" fill="#C4C4C4"/>
<path d="M41.57 33.25H41.56C40.8476 33.25 40.27 33.8276 40.27 34.54V34.57C40.27 35.2824 40.8476 35.86 41.56 35.86H41.57C42.2825 35.86 42.86 35.2824 42.86 34.57V34.54C42.86 33.8276 42.2825 33.25 41.57 33.25Z" fill="#C4C4C4"/>
<path d="M54.73 86.76C54.73 86.29 54.8 85.82 54.86 85.35C54.9547 84.4773 55.1083 83.612 55.32 82.76C56.65 77.42 60.13 73.6 66.11 73.42C66.302 73.4095 66.493 73.4547 66.66 73.55C68.5611 74.5355 70.6687 75.0564 72.81 75.07C74.7516 75.1091 76.6649 74.5996 78.33 73.6C78.5168 73.4774 78.7366 73.4146 78.96 73.42C86.8 73.68 90.33 80.22 90.33 88.25V91.9C90.3339 92.4378 90.2313 92.9711 90.0279 93.4691C89.8245 93.967 89.5244 94.4196 89.145 94.8009C88.7657 95.1821 88.3145 95.4844 87.8175 95.6902C87.3206 95.896 86.7878 96.0013 86.25 96H58.81C57.7306 96 56.6953 95.5712 55.9321 94.8079C55.1688 94.0446 54.74 93.0094 54.74 91.93V91.93V91.68" stroke="#007B64" stroke-width="2" stroke-linecap="round" stroke-linejoin="round"/>
<path d="M83.5601 88.85V95.97" stroke="#007B64" stroke-width="2" stroke-miterlimit="10" stroke-linecap="round"/>
<path d="M61.0801 88.85V95.97" stroke="#007B64" stroke-width="2" stroke-miterlimit="10" stroke-linecap="round"/>
<path d="M80.9799 54C81.262 54.3342 81.5193 54.6884 81.7499 55.06C81.988 55.4274 82.205 55.808 82.3999 56.2C83.4417 58.3482 83.7563 60.777 83.2963 63.1197C82.8362 65.4624 81.6265 67.5918 79.8496 69.1865C78.0728 70.7811 75.8255 71.7544 73.4468 71.9594C71.0682 72.1644 68.6874 71.5899 66.664 70.3227C64.6406 69.0555 63.0844 67.1644 62.2303 64.9349C61.3763 62.7054 61.2708 60.2586 61.9297 57.9639C62.5887 55.6692 63.9763 53.6512 65.8832 52.2145C67.79 50.7778 70.1125 50.0005 72.4999 50C73.6506 49.9997 74.7943 50.1785 75.8899 50.53C76.4436 50.71 76.982 50.9341 77.4999 51.2C77.7499 51.33 77.9899 51.46 78.2199 51.61" fill="#FFC463"/>
</svg>

<svg width="145" height="145" fill="none" xmlns="http://www.w3.org/2000/svg"><path d="M5 121.03l135 .05" stroke="#007B64" stroke-width="2" stroke-miterlimit="10" stroke-linecap="round"/><path d="M58.92 108.52h73.07a.997.997 0 011 1 11.421 11.421 0 01-3.309 8.103 11.43 11.43 0 01-8.071 3.387H23.33a11.439 11.439 0 01-8.068-3.394 11.428 11.428 0 01-3.302-8.106.999.999 0 011-1h38.48M115.61 29H29.55a6.97 6.97 0 00-6.97 6.97v65.06a6.97 6.97 0 006.97 6.97h86.06a6.97 6.97 0 006.97-6.97V35.97a6.97 6.97 0 00-6.97-6.97z" fill="#fff"/><path d="M61.43 108.5s14.32-8 30.38-6.5c11 1 30.35-8.59 30.68-10.29v10.4l-2.68 5.89-7 1-51.38-.5z" fill="#EBEBEB"/><path d="M22.33 101.34v-65.1a7.14 7.14 0 017.09-7.16h80.07" stroke="#007B64" stroke-width="2.18" stroke-miterlimit="10" stroke-linecap="round"/><path d="M106.04 29.12h9.58a7.15 7.15 0 017.09 7.17v65.09a7.133 7.133 0 01-1.47 4.35 7.069 7.069 0 01-5.62 2.81h-7.5" stroke="#007B64" stroke-width="2" stroke-miterlimit="10" stroke-linecap="round"/><path d="M94.99 121s9.82-7 15.82-7 9.47-4.91 9.24-5.46l12.27.07.7 1.61-.21 3.78-6 6-31.82 1z" fill="#EBEBEB"/><path d="M58.92 108.52h73.07a.997.997 0 011 1 11.421 11.421 0 01-3.309 8.103 11.43 11.43 0 01-8.071 3.387H23.33a11.439 11.439 0 01-8.068-3.394 11.428 11.428 0 01-3.302-8.106v0a.999.999 0 011-1h38.48M30.85 39.54l82.76.03" stroke="#007B64" stroke-width="2" stroke-miterlimit="10" stroke-linecap="round"/><path d="M110.31 33.64H91.5a.94.94 0 100 1.88h18.81a.94.94 0 000-1.88z" fill="#FFC463"/><path d="M33.81 33.25h-.01a1.29 1.29 0 00-1.29 1.29v.03c0 .712.577 1.29 1.29 1.29h.01a1.29 1.29 0 001.29-1.29v-.03a1.29 1.29 0 00-1.29-1.29zm3.88 0h-.01a1.29 1.29 0 00-1.29 1.29v.03c0 .712.578 1.29 1.29 1.29h.01a1.29 1.29 0 001.29-1.29v-.03a1.29 1.29 0 00-1.29-1.29zm3.88 0h-.01a1.29 1.29 0 00-1.29 1.29v.03c0 .712.578 1.29 1.29 1.29h.01a1.29 1.29 0 001.29-1.29v-.03a1.29 1.29 0 00-1.29-1.29z" fill="#C4C4C4"/><path d="M54.73 86.76c0-.47.07-.94.13-1.41.095-.873.248-1.738.46-2.59 1.33-5.34 4.81-9.16 10.79-9.34a1 1 0 01.55.13 13.55 13.55 0 006.15 1.52c1.942.04 3.855-.47 5.52-1.47a1.1 1.1 0 01.63-.18c7.84.26 11.37 6.8 11.37 14.83v3.65a4.072 4.072 0 01-4.08 4.1H58.81a4.07 4.07 0 01-4.07-4.07v0-.25" stroke="#007B64" stroke-width="2" stroke-linecap="round" stroke-linejoin="round"/><path d="M83.56 88.85v7.12m-22.48-7.12v7.12" stroke="#007B64" stroke-width="2" stroke-miterlimit="10" stroke-linecap="round"/><path d="M80.98 54c.282.334.54.688.77 1.06.238.367.455.748.65 1.14a11 11 0 11-9.9-6.2c1.15 0 2.294.178 3.39.53.554.18 1.092.404 1.61.67.25.13.49.26.72.41" fill="#FFC463"/></svg>
